X:1
T:Down at the Cross
T:John Hart Stockton
T:Down at the Cross
T:Public Domain
T:Public Domain
C:John Hart Stockton
Z:Public Domain
%%score ( 1 2 ) ( 3 4 )
L:1/8
M:4/4
K:Ab
V:1 treble 
V:2 treble 
V:3 bass 
V:4 bass 
V:1
 [Ec]2 [Ec]>[DB] [CA]2 [CA]>[EG] | [DF]2 [DA]2 [CE]4 | [Ec]2 [Ec]>[Ec] [Ae]2 [Ae]>[Ac] | %3
w: 1.~Down at the cross where my|Sav- ior died,|Down where for cleans- ing from|
w: 2.~I am so won- drous- ly|saved from sin,|Je- sus so sweet- ly a-|
w: 3.~Oh, pre- cious fount- ain that|saves from sin,|I am so glad I have|
w: 4.~Come to this fount- ain so|rich and sweet,|Cast thy poor soul at the|
 [EA]2 [Ec]2 [EB]4 | [Ec]2 [Ec]>[DB] [CA]2 [EA]>[EG] | [DF]2 [DA]2 [CE]4 | [Ec]3 [CA] [Ec]2 [DB]2 | %7
w: sin I cried,|There to my heart was the|blood ap- plied;|Glo- ry to His|
w: bides with- in;|There at the cross where He|took me in;|Glo- ry to His|
w: en- tered in;|There Je- sus saves me and|keeps me clean;|Glo- ry to His|
w: Sav- ior’s feet;|Plunge in to- day, and be|made com- plete;|Glo- ry to His|
 [CA]8 ||"^Refrain" [DA]3 [DA] [FA]2 [DF]2 | ([CE]3 [DF] [CA]4) | [Ec]3 [Ec] [Ec]2 [EA]2 | %11
w: name!||||
w: name!|Glo- ry to His|name, * *|glo- ry to His|
w: name!||||
w: name!||||
 (B3 c B4) | [Ec]2 [Ec]>[DB] [CA]2 [EA]>[EG] | [DF]2 [DA]2 [CE]4 | [Ec]3 [CA] [Ec]2 [DB]2 | %15
w: ||||
w: name: * *|to my heart was the blood|ap- plied; Glo-|ry to His name!|
w: ||||
w: ||||
 [CA]6 z2 |] %16
w: |
w: |
w: |
w: |
V:2
 x8 | x8 | x8 | x8 | x8 | x8 | x8 | x8 || x8 | x8 | x8 | E8 | x8 | x8 | x8 | x8 |] %16
w: ||||||||||||||||
w: |||||||||||There|||||
V:3
 [A,,A,]2 [A,,A,]>[A,,A,] [A,,A,]2 [C,A,]>[C,A,] | [D,A,]2 [F,A,]2 [A,,A,]4 | %2
 A,2 A,>A, [A,C]2 [A,C]>[A,E] | [A,C]2 A,2 [E,G,]4 | %4
 [A,,A,]2 [A,,A,]>[A,,A,] [A,,A,]2 [C,A,]>[C,A,] | [D,A,]2 [F,A,]2 [A,,A,]4 | %6
 [E,A,]3 [E,A,] [E,A,]2 [E,G,]2 | [A,,A,]8 || [D,F,]3 [D,F,] [D,A,]2 [D,A,]2 | [A,,A,]8 | %10
 A,3 A, A,2 [C,A,]2 | (G,3 A, G,4) | [A,,A,]2 [A,,A,]>[A,,A,] [A,,A,]2 [C,A,]>[C,A,] | %13
 [D,A,]2 [F,A,]2 [A,,A,]4 | [E,A,]3 [E,A,] [E,A,]2 [E,G,]2 | [A,,A,]6 z2 |] %16
V:4
 x8 | x8 | x8 | x8 | x8 | x8 | x8 | x8 || x8 | x8 | x8 | E,8 | x8 | x8 | x8 | x8 |] %16

